**kern	**text	**kern	**text	**kern	**text	**kern	**text	**kern	**text	**cdata-harm
*staff5	*staff5	*staff4	*staff4	*staff3	*staff3	*staff2	*staff2	*staff1	*staff1	*
=1-	=1-	=1-	=1-	=1-	=1-	=1-	=1-	=1-	=1-	=1-
*clefF4	*	*clefGv2	*	*clefGv2	*	*clefG2	*	*clefG2	*	*
*k[b-]	*	*k[b-]	*	*k[b-]	*	*k[b-]	*	*k[b-]	*	*
*M4/4	*	*M4/4	*	*M4/4	*	*M4/4	*	*M4/4	*	*
1r	.	2r	.	2r	.	2r	.	1dd\	Fum-	<HOM_4v
.	.	2B-\	Fum-	2f\	Fum-	2b-\	Fum-	.	.	.
=2	=2	=2	=2	=2	=2	=2	=2	=2	=2	.
1r	.	4c\	mo	4e\	mo	4g/	mo	4cc\	mo	.
.	.	4G/	fe-	4g\	fe-	4dd\	fe-	4b-\	fe-	.
.	.	4d\	li-	4f#\	li-	4dd\	li-	4a/	li-	.
.	.	4e-\	ciun	4g\	ciun	4cc\	ciun	4g/	ciun	.
=3	=3	=3	=3	=3	=3	=3	=3	=3	=3	.
1r	.	1d\	tem-	2f#\	tem-	2dd\	tem-	2a/	tem-	.
.	.	.	.	2f#\	po	2dd\	po	2a/	po	>
=4	=4	=4	=4	=4	=4	=4	=4	=4	=4	.
[1G\	Fum-	1d\	po	1r	.	2g/	Fum-	1r	.	<HOMrep_4v+CON_1v
.	.	.	.	.	.	4f/	mo	.	.	.
.	.	.	.	.	.	4e-/	fe-	.	.	.
=5	=5	=5	=5	=5	=5	=5	=5	=5	=5	.
2G\]	.	2r	.	2r	.	2d/	li-	2b-\	Fum-	.
4F\	mo	4r	.	2c\	fe-	2g/	ciun	4cc\	mo	.
4E-\	fe-	4G/	fe-	.	.	.	.	4g/	fe-	.
=6	=6	=6	=6	=6	=6	=6	=6	=6	=6	.
4D\	li-	4A/	li-	4d\	li-	4f#/	tem-	4dd\	li-	.
4C/	ciun	4c\	ciun	4G/	ciun	2g/	.	4ee-\	ciun	.
2D\	tem-	2A/	tem-	2d\	tem-	.	.	2dd\	tem-	.
.	.	.	.	.	.	4f#/	.	.	.	.
=7	=7	=7	=7	=7	=7	=7	=7	=7	=7	.
4GG/	po	2G/	po	2d\	po	4g/	po	2bn\	po	.
2G\	Io	.	.	.	.	2d/	Io	.	.	.
.	.	4B-\	Io	4G/	Io	.	.	2r	.	.
4F\	a-	4c\	a-	4A/	a-	4f/	a-	.	.	.
=8	=8	=8	=8	=8	=8	=8	=8	=8	=8	.
2E-\	man-	2e-\	man-	2B-\	man-	2g/	man-	1r	.	.
4E-\	tee	4e-\	tee	4B-\	tee	4g/	tee	.	.	.
4C/	a-	4e-\	a-	4c\	a-	4g/	a-	.	.	.
=9	=9	=9	=9	=9	=9	=9	=9	=9	=9	.
2D\	ma-	2d\	ma-	2A/	ma-	2f#/	ma-	1r	.	.
2D\	to	2d\	to	2A/	to	4f#/	to	.	.	>
.	.	.	.	.	.	[4dd\	Tu	.	.	<HOM_3v
=10	=10	=10	=10	=10	=10	=10	=10	=10	=10	.
1r	.	1r	.	4B-\	Tu	4dd\]	.	4b-\	Tu	.
.	.	.	.	4c\	a-	4cc\	a-	4a/	a-	.
.	.	.	.	2e-\	ma-	2b-\	ma-	2g/	ma-	.
=11	=11	=11	=11	=11	=11	=11	=11	=11	=11	.
1r	.	1r	.	4e\	tae	4b-\	tae	4g/	tae	.
.	.	.	.	4e\	a-	4g/	a-	4g/	a-	.
.	.	.	.	[2d\	man-	[2a/	man-	2f#/	man-	.
=12	=12	=12	=12	=12	=12	=12	=12	=12	=12	.
2r	.	4r	.	2d\]	.	2a/]	.	2f/	tein	>
.	.	2d\	in	.	.	.	.	.	.	<CONlib_5v
2G\	in	.	.	2d\	tein	2b-\	tein	4.g/	lie-	.
.	.	[4G/	lie-	.	.	.	.	.	.	.
.	.	.	.	.	.	.	.	8f/	.	.
=13	=13	=13	=13	=13	=13	=13	=13	=13	=13	.
2C/	lie-	8G/L]	.	2e-\	lie-	8cc\L	lie-	8g/L	.	.
.	.	8F/J	.	.	.	8dd\J	.	8a/J	.	.
.	.	8G/L	.	.	.	8ee-\L	.	2g/	.	.
.	.	8A/J	.	.	.	8cc\J	.	.	.	.
2GG/	to	4B-\	.	2d\	to	4.dd\	.	.	.	.
.	.	8A/L	.	.	.	.	.	8f/L	.	.
.	.	8G/J	.	.	.	16cc\LL	.	8e/J	.	.
.	.	.	.	.	.	16b-\JJ	.	.	.	.
=14	=14	=14	=14	=14	=14	=14	=14	=14	=14	.
1D\	sta-	4A/	.	1d\	sta-	4a/	.	4f#/	.	.
.	.	4B-\	to	.	.	4g/	to	2g/	to	.
.	.	2A/	sta-	.	.	2a/	sta-	.	.	.
.	.	.	.	.	.	.	.	4f#/	sta-	.
=15	=15	=15	=15	=15	=15	=15	=15	=15	=15	.
1GG/	to.	2G/	to.	4d\	to.	2bn\	to.	1g/	to.	>
.	.	.	.	2d\	Tu	.	.	.	.	<ANTIF_3v
.	.	4B-\	Tu	.	.	2r	.	.	.	.
.	.	4c\	d'a-	4e\	d'a-	.	.	.	.	.
=16	=16	=16	=16	=16	=16	=16	=16	=16	=16	.
2r	.	4d\	man-	4f\	man-	1r	.	2r	.	.
.	.	8c\L	te	8e\L	te	.	.	.	.	.
.	.	8d\J	ne-	8f\J	ne-	.	.	.	.	.
4G\	Tu	2e-\	mi-	2g\	mi-	.	.	4b-\	Tu	.
4A\	d'a-	.	.	.	.	.	.	4cc\	d'a-	.
=17	=17	=17	=17	=17	=17	=17	=17	=17	=17	.
4B-\	man-	2d\	ca	4f\	ca	4d/	Tu	4dd\	man-	.
8A\L	te	.	.	4g\	Po	4e/	d'a-	8cc\L	te	.
8G\J	ne-	.	.	.	.	.	.	8b-\J	ne-	.
4F\	mi-	2r	.	4.c\	di	4f/	man-	4a/	mi-	.
4F\	ca	.	.	.	.	8e/L	te	4a/	ca	.
.	.	.	.	8d\	.	8f/J	ne-	.	.	.
=18	=18	=18	=18	=18	=18	=18	=18	=18	=18	.
4C/	Poi	4r	.	4.e\	.	4g/	mi-	4cc\	Poi	.
2C/	di-	4G/	Poi	.	.	4c/	ca	2cc\	di-	.
.	.	.	.	8f\	.	.	.	.	.	.
.	.	4G/	di-	4g\	.	4e-/	Poi	.	.	.
4GG/	ve-	4G/	ve-	4g\	ve-	8e-/L	di-	4b-\	ve-	.
.	.	.	.	.	.	8d/J	ve-	.	.	.
=19	=19	=19	=19	=19	=19	=19	=19	=19	=19	.
2D\	nis-	2A/	nis-	2f#\	nis-	2d/	nis-	2a/	nis-	.
2D\	ti	4A/	ti	2f#\	ti	4d/	ti	4a/	ti	.
.	.	4d\	e	.	.	4a/	e	4f#/	e	.
=20	=20	=20	=20	=20	=20	=20	=20	=20	=20	.
1r	.	2G/	i-	1r	.	2b-\	i-	2g/	i-	.
.	.	2d\	o	.	.	2a/	o	2f#/	o	>
=21	=21	=21	=21	=21	=21	=21	=21	=21	=21	.
1r	.	4B-\	Vol-	1r	.	4r	.	4dd\	Vol-	<ANTIF_7v
.	.	8A/L	siin	.	.	4f/	Vol-	8cc\L	siin	.
.	.	8B-/J	dis-	.	.	.	.	8dd\J	dis-	.
.	.	8c/L	deg-	.	.	8e/L	siin	8cc\L	deg-	.
.	.	8F/J	noil	.	.	8f/J	dis-	8a\J	noil	.
.	.	8G/L	gio-	.	.	8d/L	deg-	8b-\L	gio-	.
.	.	8A/J	ve-	.	.	8f/J	noil	8cc\J	ve-	.
=22	=22	=22	=22	=22	=22	=22	=22	=22	=22	.
1r	.	4.B-\	nil	1r	.	8f/L	gio-	2.dd\	nil	.
.	.	.	.	.	.	8g/J	ve-	.	.	.
.	.	.	.	.	.	[4f/	nil	.	.	.
.	.	8c\	.	.	.	.	.	.	.	.
.	.	4d\	.	.	.	8f/L]	.	.	.	.
.	.	.	.	.	.	8d/J	de-	.	.	.
.	.	4e-\	de-	.	.	[4g/	si-	4b-\	de-	.
=23	=23	=23	=23	=23	=23	=23	=23	=23	=23	.
1r	.	4c\	si-	2r	.	4g/]	.	2a/	si-	.
.	.	4d\	.	.	.	4f/	o	.	.	.
.	.	2G/	o	4d\	Vol-	4b-\	Vol-	2g/	o	.
.	.	.	.	8e-\L	siin	8g/L	siin	.	.	.
.	.	.	.	8d\J	dis-	8b-/J	dis-	.	.	.
=24	=24	=24	=24	=24	=24	=24	=24	=24	=24	.
4F\	Vol	1r	.	8c\L	deg-	8a/L	deg-	1r	.	.
.	.	.	.	8A\J	noil	8f/J	noil	.	.	.
8E\L	siin-	.	.	8c\L	gio-	8g/L	gio-	.	.	.
8F\J	dis-	.	.	8c\J	ve-	8a/J	ve-	.	.	.
8BB-\L	deg-	.	.	4d\	nil	4b-\	nil	.	.	.
8D\J	noil	.	.	.	.	.	.	.	.	.
8E\L	gio-	.	.	4c\	de-	4g/	de-	.	.	.
8F\J	ve-	.	.	.	.	.	.	.	.	.
=25	=25	=25	=25	=25	=25	=25	=25	=25	=25	.
4G\	nil	1r	.	4B-\	si-	4.g/	si-	4dd\	Vol	.
4G\	de-	.	.	4B-\	o	.	.	8ee-\L	siin	.
.	.	.	.	.	.	8f/	.	8dd\J	dis-	.
4A\	si-	.	.	2r	.	4e/	.	8cc\L	deg-	.
.	.	.	.	.	.	.	.	8a\J	noil	.
4G\	o	.	.	.	.	4g/	o	8b-\L	gio-	.
.	.	.	.	.	.	.	.	8cc\J	ve-	.
=26	=26	=26	=26	=26	=26	=26	=26	=26	=26	.
1r	.	4d\	Vol-	4f\	Vol-	1r	.	4dd\	nil	.
.	.	8e-\L	siin	8g\L	siin	.	.	4b-\	de-	.
.	.	8d\J	dis-	8f\J	dis-	.	.	.	.	.
.	.	8c\L	deg-	8e\L	deg-	.	.	4a/	si-	.
.	.	8A\J	noil	8c\J	noil	.	.	.	.	.
.	.	8B-\L	gio-	8d\L	gio-	.	.	4g/	o	.
.	.	8c\J	ve-	8e\J	ve-	.	.	.	.	.
=27	=27	=27	=27	=27	=27	=27	=27	=27	=27	.
4B-\	Vol-	2d\	nil	4f\	nil	4dd\	Vol-	2r	.	.
8G\L	siin	.	.	4g\	de-	8b-\L	siin	.	.	.
8B-\J	dis-	.	.	.	.	8dd\J	dis-	.	.	.
4A\	deg-	2r	.	4a\	si-	8cc\L	deg-	4r	.	.
.	.	.	.	.	.	8a\J	noil	.	.	.
4G\	noil	.	.	4d\	o	8b-\L	gio-	4g/	il	.
.	.	.	.	.	.	8cc\J	ve-	.	.	.
=28	=28	=28	=28	=28	=28	=28	=28	=28	=28	.
4D\	gio-	4A/	Vol-	4r	.	2dd\	nil	4f#/	gio-	.
4GG/	ve-	8B-/L	siin	4d\	il	.	.	4g/	ve-	.
.	.	8A/J	dis-	.	.	.	.	.	.	.
4C/	nil	8G/L	deg-	4en\	gio-	4r	.	4g/	nil	.
.	.	8E/J	noil	.	.	.	.	.	.	.
4D\	de-	8F/L	gio-	4d\	ve-	4a/	de-	4f#/	de-	.
.	.	8G/J	ve-	.	.	.	.	.	.	.
=29	=29	=29	=29	=29	=29	=29	=29	=29	=29	.
1AA/	si-	4A/	nil	4c#\	nil	1a/	si-	4e/	si-	.
.	.	4F/	de-	2d\	de-	.	.	4d/	.	.
.	.	2E/	si-	.	.	.	.	2e/	.	.
.	.	.	.	4c#\	si-	.	.	.	.	.
=30	=30	=30	=30	=30	=30	=30	=30	=30	=30	.
1D\	o.	1D/	o.	1d\	o.	1a/	o.	1f#/	o.	>
=31||	=31||	=31||	=31||	=31||	=31||	=31||	=31||	=31||	=31||	.
1r	.	4r	.	2r	.	2r	.	2dd\	Sdeg-	<CONlib_4v
.	.	2d\	Sdeg-	.	.	.	.	.	.	.
.	.	.	.	2f\	Sdeg-	4r	.	4a/	no	.
.	.	4A/	no	.	.	[4a/	Sdeg-	[4cc\	vuol	.
=32	=32	=32	=32	=32	=32	=32	=32	=32	=32	.
1r	.	4c\	vuol	4e\	no	8a/L]	.	4cc\]	.	.
.	.	.	.	.	.	8e/J	no	.	.	.
.	.	2d\	ch'io	4d\	vuol	4f/	vuol	2a/	ch'io	.
.	.	.	.	4d\	ch'io	4f/	ch'io	.	.	.
.	.	4G/	te'l	4d\	te'l	4g/	te'l	4b-\	te'l	.
=33	=33	=33	=33	=33	=33	=33	=33	=33	=33	.
1r	.	2A/	di-	2c#\	di-	2e/	di-	2a/	di-	.
.	.	2D/	ca	2d\	ca	2f#/	ca	2a/	ca	>
=34	=34	=34	=34	=34	=34	=34	=34	=34	=34	.
1r	.	4d\	Sdeg-	4f#\	Sdeg-	4a/	Sdeg-	4dd\	Sdeg-	<HOM_4v
.	.	8G/L	no	8g\L	no	8b-\L	no	8dd\L	no	.
.	.	8B-/J	che	8f#\J	che	8b-\J	che	8dd\J	che	.
.	.	4F/	nel	4f#\	nel	4a/	nel	4cc\	nel	.
.	.	4G/	mio	4d\	mio	4g/	mio	4b-\	mio	.
=35	=35	=35	=35	=35	=35	=35	=35	=35	=35	.
1r	.	2D/	pet-	2d\	pet-	2f#/	pet-	2a/	pet-	.
.	.	2D/	to	4d\	to	4f#/	to	2a/	to	>
.	.	.	.	4a\	Tien	4f#/	Tien	.	.	<CON_4v+2mot
=36	=36	=36	=36	=36	=36	=36	=36	=36	=36	.
1r	.	2d\	Tien	4a\	vi-	4f/	vi-	1r	.	.
.	.	.	.	4g\	va	4b-\	va	.	.	.
.	.	4d\	vi-	4f\	l'on-	8a/L	l'on-	.	.	.
.	.	.	.	.	.	8d/J	.	.	.	.
.	.	4c\	va	4e\	ta	[4a/	.	.	.	.
=37	=37	=37	=37	=37	=37	=37	=37	=37	=37	.
1r	.	2B-\	l'on-	4r	.	4a/]	.	2dd\	Tien	.
.	.	.	.	8d\L	del	4g/	.	.	.	.
.	.	.	.	8e\J	mio	.	.	.	.	.
.	.	2A/	ta	4f\	don	2a/	ta	4dd\	vi-	.
.	.	.	.	4f\	ne-	.	.	4cc\	va	.
=38	=38	=38	=38	=38	=38	=38	=38	=38	=38	.
1r	.	4r	.	4g\	glet-	2dd\	Tien	2b-\	l'on-	.
.	.	8d\L	del	4d\	to	.	.	.	.	.
.	.	8e\J	mio	.	.	.	.	.	.	.
.	.	4f\	don	2r	.	4dd\	vi-	2a/	ta	.
.	.	4f\	ne-	.	.	4cc\	va	.	.	.
=39	=39	=39	=39	=39	=39	=39	=39	=39	=39	.
1r	.	4g\	glet-	4r	.	2b-\	l'on-	2dd\	Tien	.
.	.	4d\	to	8d\L	del	.	.	.	.	.
.	.	.	.	8e\J	mio	.	.	.	.	.
.	.	2r	.	4f\	don-	2a/	ta	4dd\	vi-	.
.	.	.	.	4f\	ne-	.	.	4cc\	va	.
=40	=40	=40	=40	=40	=40	=40	=40	=40	=40	.
1r	.	4r	.	4g\	glet-	2dd\	Tien	2b-\	l'on-	.
.	.	8d\L	del	4d\	to	.	.	.	.	.
.	.	8e\J	mio	.	.	.	.	.	.	.
.	.	4f\	don	2r	.	4dd\	vi-	2a/	ta	.
.	.	4f\	ne-	.	.	4cc\	va	.	.	.
=41	=41	=41	=41	=41	=41	=41	=41	=41	=41	.
1r	.	2g\	glet-	4r	.	2b-\	l'on-	2r	.	.
.	.	.	.	4g\	Tien	.	.	.	.	.
.	.	2d\	to	4g\	vi-	2a/	ta	4r	.	.
.	.	.	.	4f\	va	.	.	8a/L	del	.
.	.	.	.	.	.	.	.	8b-/J	mio	.
=42	=42	=42	=42	=42	=42	=42	=42	=42	=42	.
1r	.	4r	.	2e-\	l'on-	2r	.	4cc\	don	.
.	.	4g\	tien	.	.	.	.	4cc\	ne-	.
.	.	4g\	vi-	2d\	ta	4r	.	4dd\	glet-	.
.	.	4f\	va	.	.	8a/L	del	4a/	to	.
.	.	.	.	.	.	8b-/J	mio	.	.	.
=43	=43	=43	=43	=43	=43	=43	=43	=43	=43	.
1r	.	2e-\	l'on-	4r	.	4cc\	don	2r	.	.
.	.	.	.	4g\	tien	4cc\	ne-	.	.	.
.	.	2d\	ta	4g\	vi-	4dd\	glet-	4r	.	.
.	.	.	.	4f\	va	4a/	to	8a/L	del	.
.	.	.	.	.	.	.	.	8b-/J	mio	.
=44	=44	=44	=44	=44	=44	=44	=44	=44	=44	.
1r	.	2r	.	2e-\	l'on-	4r	.	4cc\	don	.
.	.	.	.	.	.	8g/L	del	4cc\	ne-	.
.	.	.	.	.	.	8a/J	mio	.	.	.
.	.	4r	.	2d\	ta	4b-\	don	2dd\	glet-	.
.	.	8d\L	del	.	.	4b-\	ne-	.	.	.
.	.	8e\J	mio	.	.	.	.	.	.	.
=45	=45	=45	=45	=45	=45	=45	=45	=45	=45	.
1r	.	2.f\	don	4r	.	2a/	glet-	4cc\	to	.
.	.	.	.	8f\L	del	.	.	8a/L	del	.
.	.	.	.	8g\J	mio	.	.	8b-/J	mio	.
.	.	.	.	4a\	don	4f/	to	4cc\	don	.
.	.	4e-\	ne-	4g\	neg-	4g/	ne-	4cc\	ne-	.
=46	=46	=46	=46	=46	=46	=46	=46	=46	=46	.
1r	.	2d\	glet-	4f#\	glet-	2a/	glet-	2dd\	glet-	.
.	.	.	.	2g\	.	.	.	.	.	.
.	.	2D/	to.	.	.	2a/	to.	2dd\	to.	>
.	.	.	.	4f#\	.	.	.	.	.	.
=47	=47	=47	=47	=47	=47	=47	=47	=47	=47	.
4G\	E	4d\	E	2g\	to.	4b-\	E	1r	.	<CON_5v+2mot
4G\	le	4d\	le	.	.	4b-\	le	.	.	.
4G\	fron-	4G/	fron-	4d\	E	4b-\	fron-	.	.	.
8F#\L	de	8A/L	de	4d\	le	8a/L	de	.	.	.
8G\J	ne	8B-/J	ne	.	.	8g/J	ne	.	.	.
=48	=48	=48	=48	=48	=48	=48	=48	=48	=48	.
4D\	suel-	4A/	suel-	4d\	fron-	4f#/	suel-	4dd\	E	.
4GG/	le	4B-\	le	8d\L	de	4g/	le	4dd\	le	.
.	.	.	.	8g\J	ne	.	.	.	.	.
2r	.	4r	.	4f#\	suel-	2r	.	4dd\	fron-	.
.	.	4G/	Del	4g\	le	.	.	8cc\L	de	.
.	.	.	.	.	.	.	.	8b-\J	ne	.
=49	=49	=49	=49	=49	=49	=49	=49	=49	=49	.
4r	.	4F#/	vos-	2r	.	4dd\	E	4a/	suel-	.
4G\	Del	4G/	tro	.	.	4dd\	le	4b-\	le	.
4F#\	vos-	4A/	lau-	4r	.	4dd\	fron-	2r	.	.
4G\	tro	4d\	ro	4g\	Del	8cc#\L	de	.	.	.
.	.	.	.	.	.	8bn\J	ne	.	.	.
=50	=50	=50	=50	=50	=50	=50	=50	=50	=50	.
4A\	lau-	4r	.	4e\	vos-	4cc\	suel-	4a/	E	.
4D\	ro	4d\	Del	4f\	tro	4dd\	le	4a/	le	.
2r	.	4c#\	vos-	4e\	lau-	4a/	E	4a/	fron-	.
.	.	4d\	tro	8d\L	ro	4a/	le	8g/L	de	.
.	.	.	.	8d\J	Del	.	.	8f/J	ne	.
=51	=51	=51	=51	=51	=51	=51	=51	=51	=51	.
4r	.	4A/	lau-	4c#\	vos-	4a/	fron-	4e/	suel-	.
4D\	E	4A/	ro	4d\	tro	8g/L	de	4d/	le	.
.	.	.	.	.	.	8f/J	ne	.	.	.
4C#/	le	2r	.	4A/	lau-	4e/	suel-	2r	.	.
4D\	fron-	.	.	4A/	ro	4f#/	le	.	.	.
=52	=52	=52	=52	=52	=52	=52	=52	=52	=52	.
2GG/	de	4B-\	E	2r	.	2r	.	4dd\	E	.
.	.	4B-\	le	.	.	.	.	4dd\	le	.
4GG/	ne	4B-\	fron-	4d\	E	4r	.	4dd\	fron-	.
4G\	suel-	8A/L	de	4d\	le	4g/	Del	8cc\L	de	.
.	.	8G/J	ne	.	.	.	.	8b-\J	ne	.
=53	=53	=53	=53	=53	=53	=53	=53	=53	=53	.
4D\	le	4A/	suel-	4d\	fron-	4f#/	vos-	4a/	suel-	.
4G\	Del	4G/	le	8c\L	de	4g/	tro	4d/	le	.
.	.	.	.	8B-\J	ne	.	.	.	.	.
4.F\	vos-	2r	.	4c\	suel-	4a/	lau-	4r	.	.
.	.	.	.	4A/	le	8g/L	.	4dd\	Del	.
8G\	tro	.	.	.	.	8f#/J	.	.	.	.
=54	=54	=54	=54	=54	=54	=54	=54	=54	=54	.
2A\	lau-	4r	.	4r	.	2e/	.	4cc#\	vos-	.
.	.	4A/	Del	2A/	Del	.	.	4cc#\	tro	.
2D\	ro	4.F/	vos-	.	.	4d/	ro	4dd\	lau-	.
.	.	.	.	4d\	vos-	4f/	Del	8cc#\L	.	.
.	.	8G/	tro	.	.	.	.	8b-\J	.	.
=55	=55	=55	=55	=55	=55	=55	=55	=55	=55	.
1r	.	1A/	lau-	4c#\	tro	4e/	vos-	4a/	.	.
.	.	.	.	2d\	lau-	4a/	tro	8g/L	.	.
.	.	.	.	.	.	.	.	8f/J	.	.
.	.	.	.	.	.	2a/	lau-	2e/	.	.
.	.	.	.	4c#\	.	.	.	.	.	.
=56	=56	=56	=56	=56	=56	=56	=56	=56	=56	.
1r	.	1D/	ro	2d\	ro	2a/	ro	2f#/	ro	>
.	.	.	.	4r	.	2f/	hor	4r	.	<CON_5v
.	.	.	.	4d\	hor	.	.	[4a/	hor	.
=57	=57	=57	=57	=57	=57	=57	=57	=57	=57	.
1r	.	1r	.	4f\	sec-	4a/	sec-	4a/]	.	.
.	.	.	.	4e\	chee	4g/	chee	2cc\	sec-	.
.	.	.	.	4c\	gi&agrave;	4e/	gi&agrave;	.	.	.
.	.	.	.	4d\	si	4f/	si	4b-\	chee	.
=58	=58	=58	=58	=58	=58	=58	=58	=58	=58	.
1r	.	2r	.	2e-\	bel-	2g/	bel-	4g/	gi&agrave;	.
.	.	.	.	.	.	.	.	4a/	si	.
.	.	2d\	hor	4d\	le	2f/	le	2b-\	bel-	.
.	.	.	.	4B-\	hor	.	.	.	.	.
=59	=59	=59	=59	=59	=59	=59	=59	=59	=59	.
1r	.	4f\	sec-	4d\	sec-	4r	.	2a/	le	.
.	.	4e\	chee	4c\	chee	4a/	hor	.	.	.
.	.	4c\	gi&agrave;	4A/	gi&agrave;	4cc\	sec-	2r	.	.
.	.	4d\	si	4B-\	si	4b-\	chee	.	.	.
=60	=60	=60	=60	=60	=60	=60	=60	=60	=60	.
1r	.	2e-\	bel-	2c\	bel-	4g/	gi&agrave;	1r	.	.
.	.	.	.	.	.	4a/	si	.	.	.
.	.	2d\	le	4G/	le	2b-\	bel-	.	.	.
.	.	.	.	4d\	hor	.	.	.	.	.
=61	=61	=61	=61	=61	=61	=61	=61	=61	=61	.
2D\	hor	4r	.	2f\	sec-	2a/	le	2r	.	.
.	.	2A/	hor	.	.	.	.	.	.	.
4F\	sec-	.	.	2c\	che	2r	.	4r	.	.
4E\	chee	[4c\	sec-	.	.	.	.	4cc\	hor	.
=62	=62	=62	=62	=62	=62	=62	=62	=62	=62	.
4C/	gi&agrave;	4c\]	.	1r	.	4r	.	4ee-\	sec-	.
4D\	si	4B-\	chee	.	.	4f/	hor	4dd\	chee	.
2E-\	bel-	4G/	gi&agrave;	.	.	2g/	sec-	4b-\	gi&agrave;	.
.	.	4A/	si	.	.	.	.	4cc\	si	.
=63	=63	=63	=63	=63	=63	=63	=63	=63	=63	.
2D\	le	2B-\	bel-	1r	.	4f/	chee	2dd\	bel-	.
.	.	.	.	.	.	4d/	gi&agrave;	.	.	.
4r	.	2A/	le	.	.	4e/	si	4cc\	le	.
4F\	hor	.	.	.	.	[4f/	bel-	4cc\	hor	.
=64	=64	=64	=64	=64	=64	=64	=64	=64	=64	.
2G\	sec-	1r	.	4r	.	4f/]	.	2b-\	sec-	.
.	.	.	.	4B-\	hor	4e/	.	.	.	.
4F\	chee	.	.	4c\	sec-	2f/	le	4a/	chee	.
4D\	gi&agrave;	.	.	4B-\	chee	.	.	4dd\	gi&agrave;	.
=65	=65	=65	=65	=65	=65	=65	=65	=65	=65	.
4E-\	si	2r	.	2G/	gi&agrave;	4r	.	4b-\	si	.
2C/	bel-	.	.	.	.	4cc\	hor	2cc\	bel-	.
.	.	4r	.	4A/	si	4ee-\	sec-	.	.	.
4BB-/	le	4B-\	hor	[4B-\	bel-	4dd\	chee	4f/	le	.
=66	=66	=66	=66	=66	=66	=66	=66	=66	=66	.
2r	.	4d\	sec-	4B-\]	.	4b-\	gi&agrave;	2r	.	.
.	.	4c\	chee	8A/L	.	4cc\	si	.	.	.
.	.	.	.	8G/J	.	.	.	.	.	.
2D\	e	4A/	gi&agrave;	2F/	.	2dd\	bel-	4r	.	.
.	.	4B-\	si	.	.	.	.	4dd\	hor	.
=67	=67	=67	=67	=67	=67	=67	=67	=67	=67	.
2C/	gi&agrave;	4c\	bel-	4G/	le	2g/	le	4ee-\	sec-	.
.	.	8B-/L	.	4G/	hor	.	.	4dd\	chee	.
.	.	8A/J	.	.	.	.	.	.	.	.
2E-\	si	2G/	.	[2g\	sec-	4r	.	4b-\	gi&agrave;	.
.	.	.	.	.	.	4g/	hor	4cc\	si	.
=68	=68	=68	=68	=68	=68	=68	=68	=68	=68	.
[1D\	bel-	4d\	le	4g\]	.	4b-\	sec-	[1dd\	bel-	.
.	.	4A/	hor	4f\	chee	4a/	chee	.	.	.
.	.	4B-\	sec-	4d\	gi&agrave;	4.f/	gi&agrave;	.	.	.
.	.	4A/	chee	4d\	si	.	.	.	.	.
.	.	.	.	.	.	8g/	si	.	.	.
=69	=69	=69	=69	=69	=69	=69	=69	=69	=69	.
1D\]	.	4F/	gi&agrave;	1d\	bel-	4a/	bel-	1dd\]	.	.
.	.	4G/	si	.	.	2g/	.	.	.	.
.	.	2A/	bel-	.	.	.	.	.	.	.
.	.	.	.	.	.	4f#/	.	.	.	.
=70	=70	=70	=70	=70	=70	=70	=70	=70	=70	.
1GG/	le.	1G/	le.	1d\	le.	1g/	le.	1bn\	le.	>
==	==	==	==	==	==	==	==	==	==	==
*-	*-	*-	*-	*-	*-	*-	*-	*-	*-	*-